icons/alcohol_fill.svg

<svg width="48" height="48" viewBox="0 0 48 48" fill="none" xmlns="http://www.w3.org/2000/svg">
<path fill-rule="evenodd" clip-rule="evenodd" d="M19.5 5C19.5 4.44772 19.0523 4 18.5 4H16C15.4477 4 15 4.44772 15 5V17.1816C15 17.3843 14.914 17.5774 14.7633 17.713C11.7313 20.4418 10 24.3293 10 28.4084V41.7918C10 43.0114 10.9886 44 12.2082 44H21.6435C22.945 44 24 42.945 24 41.6435V28.0627C24 24.1808 22.4579 20.4579 19.713 17.713C19.5766 17.5766 19.5 17.3916 19.5 17.1987V5ZM12 29H22V37H12V29ZM35.6387 24H28.3613L28.9988 18H35.0012L35.6387 24ZM27.2 16H36.8L37.8132 25.5364C38.1441 28.6504 35.9756 31.4038 33 31.9151V42H36C36.5523 42 37 42.4477 37 43C37 43.5523 36.5523 44 36 44H28C27.4477 44 27 43.5523 27 43C27 42.4477 27.4477 42 28 42H31V31.9151C28.0243 31.4038 25.8559 28.6504 26.1868 25.5364L27.2 16Z" fill="black"/>
</svg>

<svg
  xmlns="http://www.w3.org/2000/svg"
  width="24"
  height="24"
  viewBox="0 0 24 24"
  fill="none"
  stroke="currentColor"
  stroke-width="2"
  stroke-linecap="round"
  stroke-linejoin="round"
>
  <path
    fill-rule="evenodd"
    d="M19.5 5a1 1 0 0 0-1-1H16a1 1 0 0 0-1 1v12.182a.72.72 0 0 1-.237.531A14.4 14.4 0 0 0 10 28.408v13.384c0 1.22.989 2.208 2.208 2.208h9.436A2.356 2.356 0 0 0 24 41.644V28.063c0-3.882-1.542-7.605-4.287-10.35a.73.73 0 0 1-.213-.514zM12 29h10v8H12zm23.639-5H28.36L29 18H35zM27.2 16h9.6l1.013 9.536A5.85 5.85 0 0 1 33 31.916V42h3a1 1 0 1 1 0 2h-8a1 1 0 1 1 0-2h3V31.915a5.85 5.85 0 0 1-4.813-6.379z"
    clip-rule="evenodd"
  />
</svg>
